icons/paper.svg

<?xml version="1.0" encoding="UTF-8"?><svg id="uuid-30cd0811-1099-4be5-bc29-98be9e688979" xmlns="http://www.w3.org/2000/svg" viewBox="0 0 50 50"><path d="M43.38,14.7s0-.04-.01-.06c-.02-.08-.06-.16-.12-.23L29.68,.84c-.06-.06-.14-.1-.23-.12-.02,0-.04,0-.06-.01-.02,0-.04-.01-.07-.01H7.1c-.28,0-.5,.22-.5,.5V48.8c0,.28,.22,.5,.5,.5H42.9c.28,0,.5-.22,.5-.5V14.76s0-.04-.01-.06ZM7.6,48.3V1.7H28.83V14.76c0,.28,.22,.5,.5,.5h13.06V48.3H7.6ZM29.83,14.26V2.4l11.86,11.86h-11.86Z"/><path d="M12.53,10.23h12.47c.28,0,.5-.22,.5-.5s-.22-.5-.5-.5H12.53c-.28,0-.5,.22-.5,.5s.22,.5,.5,.5Z"/><path d="M36.95,20.25H12.53c-.28,0-.5,.22-.5,.5s.22,.5,.5,.5h24.42c.28,0,.5-.22,.5-.5s-.22-.5-.5-.5Z"/><path d="M36.95,25.72H12.53c-.28,0-.5,.22-.5,.5s.22,.5,.5,.5h24.42c.28,0,.5-.22,.5-.5s-.22-.5-.5-.5Z"/><path d="M27.88,41.61H12.53c-.28,0-.5,.22-.5,.5s.22,.5,.5,.5h15.35c.28,0,.5-.22,.5-.5s-.22-.5-.5-.5Z"/><path d="M34.9,31.2H12.53c-.28,0-.5,.22-.5,.5s.22,.5,.5,.5h22.37c.28,0,.5-.22,.5-.5s-.22-.5-.5-.5Z"/></svg>

<svg id="e2aa4849-9c42-4f19-9bdf-7e57c7d7c1be" data-name="ICONS" xmlns="http://www.w3.org/2000/svg" viewBox="0 0 50 50"><path d="M43.38,14.7a.17.17,0,0,0,0-.07.48.48,0,0,0-.12-.22L29.68.84a.59.59,0,0,0-.22-.12H7.1a.5.5,0,0,0-.5.5V48.8a.5.5,0,0,0,.5.5H42.9a.5.5,0,0,0,.5-.5v-34A.14.14,0,0,0,43.38,14.7ZM7.6,48.3V1.7H28.83V14.76a.5.5,0,0,0,.5.5H42.4v33Zm22.23-34V2.4L41.69,14.26Z"/><path d="M12.53,10.23H25a.5.5,0,0,0,.5-.5.5.5,0,0,0-.5-.5H12.53a.5.5,0,0,0-.5.5A.51.51,0,0,0,12.53,10.23Z"/><path d="M37,20.25H12.53a.51.51,0,0,0-.5.5.5.5,0,0,0,.5.5H37a.5.5,0,0,0,.5-.5A.51.51,0,0,0,37,20.25Z"/><path d="M37,25.72H12.53a.51.51,0,0,0-.5.5.5.5,0,0,0,.5.5H37a.5.5,0,0,0,.5-.5A.51.51,0,0,0,37,25.72Z"/><path d="M27.88,41.61H12.53a.51.51,0,0,0-.5.5.5.5,0,0,0,.5.5H27.88a.5.5,0,0,0,.5-.5A.5.5,0,0,0,27.88,41.61Z"/><path d="M34.9,31.2H12.53a.5.5,0,0,0-.5.5.51.51,0,0,0,.5.5H34.9a.5.5,0,0,0,.5-.5A.5.5,0,0,0,34.9,31.2Z"/></svg>
